X:309
T:Liberty Bell
C:J P Souza
M:6/8
K:G
g2fe2d | d2^c=c2B) | ABc BzA | dzz z2 ||
d | B2B BAG | g2d d2B | c2c c2d | e3 -e2c |
A2A AGA | f2e e2c | B2B B2c | d3 -d2d |
B2B BAB | g2d d2B | c2a a2a | a3 -a2g |
f2a aba | e2a aba | d2^c d2c | d3 -d2 ||
c | BAB e2d | B3 G3 | E3 A3 | G3 -G2G |
ABA f2e | d3 g3 | f3 e3 | d3 -d2d |
e2e ede | f2f f3 | g2g aga | b3 -b2b |
a2g e2c | B3 G3 | A3 F3 | G3 -G2 ||
d | B3 c3 | ^c3 d3 | bbb b2a | b3 -b2d |
B3 c3 | ^c3 d3 | c'c'c' c'2b | c'3 -c'2b | a3 g3 |
a2d ^c2d | b3 a3 | b2d ^c2d |
|1 f3 a3 | g2a e2g | f2g e2f | d2e c2
 :|2 e3 c'3 | b2g a2f | g2d B2d | G3 -G2 ||
